; generated by Slic3r 1.2.9 on 2015-11-14 at 09:27:05

; external perimeters extrusion width = 0.40mm
; perimeters extrusion width = 0.48mm
; infill extrusion width = 0.48mm
; solid infill extrusion width = 0.48mm
; top infill extrusion width = 0.48mm

M107
M190 S65 ; set bed temperature
M104 S205 ; set temperature
G28 ; home all axes
G1 Z5 F5000 ; lift nozzle

M109 S205 ; wait for temperature to be reached
G21 ; set units to millimeters
G90 ; use absolute coordinates
M82 ; use absolute distances for extrusion
G92 E0
G1 Z0.600 F1800.000
G1 E-2.00000 F2400.00000
G92 E0
G1 X85.928 Y85.928 F1800.000
G1 E2.00000 F2400.00000
G1 X86.015 Y85.840 E2.01125 F3240.000
G1 X87.893 Y84.524 E2.21979
G1 X90.700 Y83.900 E2.48122
G1 X109.300 Y83.900 E4.17251
G1 X111.559 Y84.297 E4.38106
G1 X113.984 Y85.840 E4.64248 F3240.000
G1 X114.159 Y86.015 E4.66499
G1 X115.476 Y87.893 E4.87353
G1 X116.100 Y90.700 E5.13496
G1 X116.100 Y109.300 E6.82625
G1 X115.703 Y111.559 E7.03479
G1 X114.160 Y113.985 E7.29622
G1 X113.985 Y114.160 E7.31872
G1 X112.107 Y115.476 E7.52727
G1 X109.300 Y116.100 E7.78869
G1 X90.700 Y116.100 E9.47998
G1 X88.441 Y115.703 E9.68853
G1 X86.015 Y114.159 E9.94996
G1 X85.840 Y113.984 E9.97246
G1 X84.524 Y112.107 E10.18100
G1 X83.900 Y109.300 E10.44243
G1 X83.900 Y90.700 E12.13372
G1 X84.297 Y88.441 E12.34226
G1 X85.840 Y86.015 E12.60369
G1 X85.886 Y85.970 E12.60949
G1 E10.60949 F2400.00000
G92 E0
G1 X107.875 Y107.875 F1800.000
G1 E2.00000 F2400.00000
G1 X104.438 Y107.875 E2.31258 F1620.000
G1 X103.118 Y106.555 E2.48232
G1 X96.882 Y106.555 E3.04929
G1 X95.562 Y107.875 E3.21904
G1 X92.125 Y107.875 E3.53162
G1 X92.125 Y104.438 E3.84419
G1 X93.445 Y103.118 E4.01394
G1 X93.445 Y96.882 E4.58091
G1 X92.125 Y95.562 E4.75065
G1 X92.125 Y92.125 E5.06323
G1 X95.562 Y92.125 E5.37581
G1 X96.882 Y93.445 E5.54555
G1 X103.118 Y93.445 E6.11252
G1 X104.438 Y92.125 E6.28227
G1 X107.875 Y92.125 E6.59485
G1 X107.875 Y95.562 E6.90742
G1 X106.555 Y96.882 E7.07717
G1 X106.555 Y103.118 E7.64414
G1 X107.875 Y104.438 E7.81388
G1 X107.875 Y107.815 E8.12101
G1 X108.500 Y108.500 F1800.000
G1 X104.179 Y108.500 E8.51394 F1620.000
G1 X102.859 Y107.180 E8.68368
G1 X97.141 Y107.180 E9.20358
G1 X95.821 Y108.500 E9.37333
G1 X91.500 Y108.500 E9.76626
G1 X91.500 Y104.179 E10.15920
G1 X92.820 Y102.859 E10.32894
G1 X92.820 Y97.141 E10.84884
G1 X91.500 Y95.821 E11.01859
G1 X91.500 Y91.500 E11.41152
G1 X95.821 Y91.500 E11.80445
G1 X97.141 Y92.820 E11.97420
G1 X102.859 Y92.820 E12.49410
G1 X104.179 Y91.500 E12.66384
G1 X108.500 Y91.500 E13.05678
G1 X108.500 Y95.821 E13.44971
G1 X107.180 Y97.141 E13.61945
G1 X107.180 Y102.859 E14.13936
G1 X108.500 Y104.179 E14.30910
G1 X108.500 Y108.440 E14.69658
G1 X109.125 Y109.125 F1800.000
G1 X103.920 Y109.125 E15.16987 F1215.000
G1 X102.600 Y107.805 E15.33961
G1 X97.400 Y107.805 E15.81244
G1 X96.080 Y109.125 E15.98219
G1 X90.875 Y109.125 E16.45548
G1 X90.875 Y103.920 E16.92877
G1 X92.195 Y102.600 E17.09851
G1 X92.195 Y97.400 E17.57134
G1 X90.875 Y96.080 E17.74109
G1 X90.875 Y90.875 E18.21438
G1 X96.080 Y90.875 E18.68767
G1 X97.400 Y92.195 E18.85741
G1 X102.600 Y92.195 E19.33024
G1 X103.920 Y90.875 E19.49998
G1 X109.125 Y90.875 E19.97327
G1 X109.125 Y96.080 E20.44657
G1 X107.805 Y97.400 E20.61631
G1 X107.805 Y102.600 E21.08914
G1 X109.125 Y103.920 E21.25888
G1 X109.125 Y109.065 E21.72672
G1 X108.779 Y108.925 F1800.000
G1 X107.497 Y105.271 F1800.000
G1 X94.729 Y92.503 E23.38059 F1620.000
G1 X93.839 Y92.503 E23.46213
G1 X107.497 Y106.161 E25.23132
G1 X107.497 Y107.052 E25.31286
G1 X92.948 Y92.503 E27.19735
G1 X92.503 Y92.948 E27.25501
G1 X107.052 Y107.497 E29.13950
G1 X106.161 Y107.497 E29.22104
G1 X92.503 Y93.839 E30.99023
G1 X92.503 Y94.729 E31.07176
G1 X105.271 Y107.497 E32.72564
G1 X103.061 Y106.177 F1800.000
G1 X93.823 Y96.939 E33.92223 F1620.000
G1 X93.823 Y97.829 E34.00377
G1 X102.171 Y106.177 E35.08505
G1 X101.281 Y106.177 E35.16658
G1 X93.823 Y98.719 E36.13255
G1 X93.823 Y99.610 E36.21409
G1 X100.390 Y106.177 E37.06475
G1 X99.500 Y106.177 E37.14628
G1 X93.823 Y100.500 E37.88163
G1 X93.823 Y101.390 E37.96317
G1 X98.610 Y106.177 E38.58321
G1 X97.720 Y106.177 E38.66474
G1 X93.823 Y102.280 E39.16947
G1 X93.823 Y103.170 E39.25100
G1 X96.830 Y106.177 E39.64042
G1 X96.371 Y106.609 E39.69810
G1 X93.391 Y103.629 E40.08409
G1 X92.946 Y104.074 E40.14175
G1 X95.926 Y107.054 E40.52774
G1 X95.479 Y107.497 E40.58540
G1 X92.503 Y104.521 E40.97085
G1 X92.503 Y105.411 E41.05239
G1 X94.589 Y107.497 E41.32253
G1 X93.699 Y107.497 E41.40407
G1 X92.503 Y106.301 E41.55890
G1 X92.503 Y107.192 E41.64044
G1 X92.808 Y107.497 E41.67996
G1 X106.177 Y103.061 F1800.000
G1 X96.939 Y93.823 E42.87655 F1620.000
G1 X97.829 Y93.823 E42.95809
G1 X106.177 Y102.171 E44.03937
G1 X106.177 Y101.281 E44.12091
G1 X98.719 Y93.823 E45.08688
G1 X99.610 Y93.823 E45.16842
G1 X106.177 Y100.390 E46.01908
G1 X106.177 Y99.500 E46.10061
G1 X100.500 Y93.823 E46.83596
G1 X101.390 Y93.823 E46.91750
G1 X106.177 Y98.610 E47.53754
G1 X106.177 Y97.720 E47.61908
G1 X102.280 Y93.823 E48.12381
G1 X103.170 Y93.823 E48.20534
G1 X106.177 Y96.830 E48.59476
G1 X106.609 Y96.371 E48.65244
G1 X103.629 Y93.391 E49.03843
G1 X104.074 Y92.946 E49.09609
G1 X107.054 Y95.926 E49.48208
G1 X107.497 Y95.479 E49.53974
G1 X104.521 Y92.503 E49.92519
G1 X105.411 Y92.503 E50.00673
G1 X107.497 Y94.589 E50.27688
G1 X107.497 Y93.699 E50.35841
G1 X106.301 Y92.503 E50.51325
G1 X107.192 Y92.503 E50.59478
G1 X107.497 Y92.808 E50.63431
M140 S60 ; wait for bed temperature to be reached
G1 Z0.900 F1800.000
G1 E48.63431 F2400.00000
G92 E0
G1 X108.804 Y108.804 F1800.000
G1 E2.00000 F2400.00000
G1 X104.513 Y108.804 E2.22420 F1800.000
G1 X103.193 Y107.484 E2.32173
G1 X96.807 Y107.484 E2.65532
G1 X95.487 Y108.804 E2.75285
G1 X91.196 Y108.804 E2.97705
G1 X91.196 Y104.513 E3.20124
G1 X92.516 Y103.193 E3.29877
G1 X92.516 Y96.807 E3.63237
G1 X91.196 Y95.487 E3.72990
G1 X91.196 Y91.196 E3.95409
G1 X95.487 Y91.196 E4.17829
G1 X96.807 Y92.516 E4.27582
G1 X103.193 Y92.516 E4.60941
G1 X104.513 Y91.196 E4.70694
G1 X108.804 Y91.196 E4.93114
G1 X108.804 Y95.487 E5.15533
G1 X107.484 Y96.807 E5.25286
G1 X107.484 Y103.193 E5.58646
G1 X108.804 Y104.513 E5.68399
G1 X108.804 Y108.744 E5.90505
G1 X109.061 Y109.223 F1800.000
G1 X104.339 Y109.223 E6.15174 F1800.000
G1 X103.019 Y107.903 E6.24927
G1 X96.981 Y107.903 E6.56473
G1 X95.661 Y109.223 E6.66226
G1 X90.939 Y109.223 E6.90895
G1 X90.777 Y109.061 E6.92091
G1 X90.777 Y104.339 E7.16760
G1 X92.097 Y103.019 E7.26513
G1 X92.097 Y96.981 E7.58059
G1 X90.777 Y95.661 E7.67812
G1 X90.777 Y90.939 E7.92481
G1 X90.939 Y90.777 E7.93677
G1 X95.661 Y90.777 E8.18346
G1 X96.981 Y92.097 E8.28099
G1 X103.019 Y92.097 E8.59646
G1 X104.339 Y90.777 E8.69398
G1 X109.061 Y90.777 E8.94067
G1 X109.223 Y90.939 E8.95263
G1 X109.223 Y95.661 E9.19932
G1 X107.903 Y96.981 E9.29685
G1 X107.903 Y103.019 E9.61232
G1 X109.223 Y104.339 E9.70985
G1 X109.223 Y109.061 E9.95654
G1 X109.103 Y109.180 E9.96536
G1 X109.328 Y109.490 F1800.000
G1 X109.217 Y109.600 E9.97190 F1350.000
G1 X104.183 Y109.600 E10.18264
G1 X102.863 Y108.280 E10.26078
G1 X97.137 Y108.280 E10.50046
G1 X95.817 Y109.600 E10.57860
G1 X90.783 Y109.600 E10.78934
G1 X90.400 Y109.217 E10.81201
G1 X90.400 Y104.183 E11.02274
G1 X91.720 Y102.863 E11.10089
G1 X91.720 Y97.137 E11.34057
G1 X90.400 Y95.817 E11.41871
G1 X90.400 Y90.783 E11.62945
G1 X90.783 Y90.400 E11.65211
G1 X95.817 Y90.400 E11.86285
G1 X96.181 Y90.764 E11.88437
G1 X97.137 Y91.720 E11.94099 F1350.000
G1 X102.863 Y91.720 E12.18067
G1 X104.183 Y90.400 E12.25881
G1 X109.217 Y90.400 E12.46955
G1 X109.600 Y90.783 E12.49222
G1 X109.600 Y95.817 E12.70295
G1 X108.280 Y97.137 E12.78110
G1 X108.280 Y102.863 E13.02078
G1 X109.600 Y104.183 E13.09892
G1 X109.600 Y109.217 E13.30966
G1 X109.370 Y109.447 E13.32327
G1 X109.177 Y109.449 F1800.000
G1 X108.339 Y108.557 F1800.000
G1 X108.557 Y108.339 E13.33937 F1800.000
G1 X108.557 Y107.746 E13.37036
G1 X107.746 Y108.557 E13.43030
G1 X107.153 Y108.557 E13.46129
G1 X108.557 Y107.153 E13.56506
G1 X108.557 Y106.560 E13.59606
G1 X106.560 Y108.557 E13.74366
G1 X105.968 Y108.557 E13.77465
G1 X108.557 Y105.968 E13.96609
G1 X108.557 Y105.375 E13.99709
G1 X105.375 Y108.557 E14.23236
G1 X104.782 Y108.557 E14.26335
G1 X108.557 Y104.782 E14.54246
G1 X108.370 Y104.376 E14.56582
G1 X104.376 Y108.370 E14.86113
G1 X104.080 Y108.073 E14.88305
G1 X108.073 Y104.080 E15.17835
G1 X107.777 Y103.783 E15.20027
G1 X103.783 Y107.777 E15.49557
G1 X103.487 Y107.481 E15.51749
G1 X107.481 Y103.487 E15.81279
G1 X107.237 Y103.138 E15.83505
G1 X103.138 Y107.237 E16.13812
G1 X102.545 Y107.237 E16.16912
G1 X107.237 Y102.545 E16.51603
G1 X107.237 Y101.952 E16.54703
G1 X101.952 Y107.237 E16.93777
G1 X101.359 Y107.237 E16.96876
G1 X107.237 Y101.359 E17.40334
G1 X107.237 Y100.767 E17.43434
G1 X100.767 Y107.237 E17.91275
G1 X100.174 Y107.237 E17.94375
G1 X107.237 Y100.174 E18.46600
G1 X107.237 Y99.581 E18.49699
G1 X99.581 Y107.237 E19.06307
G1 X98.988 Y107.237 E19.09407
G1 X107.237 Y98.988 E19.70399
G1 X107.237 Y98.395 E19.73498
G1 X98.395 Y107.237 E20.38873
G1 X97.802 Y107.237 E20.41973
G1 X107.237 Y97.802 E21.11731
G1 X107.237 Y97.210 E21.14831
G1 X97.210 Y107.237 E21.88973
G1 X96.617 Y107.237 E21.92073
G1 X107.237 Y96.617 E22.70598
G1 X108.557 Y94.704 F1800.000
G1 X94.704 Y108.557 E23.73028 F1800.000
G1 X94.111 Y108.557 E23.76127
G1 X108.557 Y94.111 E24.82940
G1 X108.557 Y93.518 E24.86040
G1 X93.518 Y108.557 E25.97236
G1 X92.925 Y108.557 E26.00336
G1 X108.557 Y92.925 E27.15916
G1 X108.557 Y92.333 E27.19015
G1 X92.333 Y108.557 E28.38979
G1 X91.740 Y108.557 E28.42078
G1 X108.557 Y91.740 E29.66425
G1 X108.260 Y91.443 E29.68617
G1 X91.443 Y108.260 E30.92964
G1 X91.443 Y107.667 E30.96063
G1 X107.667 Y91.443 E32.16027
G1 X107.075 Y91.443 E32.19126
G1 X91.443 Y107.075 E33.34706
G1 X91.443 Y106.482 E33.37806
G1 X106.482 Y91.443 E34.49002
G1 X105.889 Y91.443 E34.52102
G1 X91.443 Y105.889 E35.58915
G1 X91.443 Y105.296 E35.62014
G1 X105.296 Y91.443 E36.64444
G1 X103.383 Y92.763 F1800.000
G1 X92.763 Y103.383 E37.42969 F1800.000
G1 X92.763 Y102.790 E37.46069
G1 X102.790 Y92.763 E38.20211
G1 X102.198 Y92.763 E38.23310
G1 X92.763 Y102.198 E38.93069
G1 X92.763 Y101.605 E38.96169
G1 X101.605 Y92.763 E39.61544
G1 X101.012 Y92.763 E39.64643
G1 X92.763 Y101.012 E40.25635
G1 X92.763 Y100.419 E40.28735
G1 X100.419 Y92.763 E40.85343
G1 X99.826 Y92.763 E40.88442
G1 X92.763 Y99.826 E41.40667
G1 X92.763 Y99.233 E41.43767
G1 X99.233 Y92.763 E41.91608
G1 X98.641 Y92.763 E41.94708
G1 X92.763 Y98.641 E42.38165
G1 X92.763 Y98.048 E42.41265
G1 X98.048 Y92.763 E42.80339
G1 X97.455 Y92.763 E42.83439
G1 X92.763 Y97.455 E43.18130
G1 X92.763 Y96.862 E43.21229
G1 X96.862 Y92.763 E43.51537
G1 X96.513 Y92.519 E43.53763
G1 X92.519 Y96.513 E43.83293
G1 X92.223 Y96.217 E43.85485
G1 X96.217 Y92.223 E44.15015
G1 X95.920 Y91.927 E44.17207
G1 X91.927 Y95.920 E44.46737
G1 X91.630 Y95.624 E44.48929
G1 X95.624 Y91.630 E44.78459
G1 X95.218 Y91.443 E44.80796
G1 X91.443 Y95.218 E45.08706
G1 X91.443 Y94.625 E45.11806
G1 X94.625 Y91.443 E45.35333
G1 X94.032 Y91.443 E45.38433
G1 X91.443 Y94.032 E45.57576
G1 X91.443 Y93.440 E45.60676
G1 X93.440 Y91.443 E45.75436
G1 X92.847 Y91.443 E45.78536
G1 X91.443 Y92.847 E45.88912
G1 X91.443 Y92.254 E45.92012
G1 X92.254 Y91.443 E45.98005
G1 X91.661 Y91.443 E46.01105
G1 X91.443 Y91.661 E46.02715
G1 Z1.200 F1800.000
G1 X108.887 Y109.004 F1800.000
G1 X104.713 Y109.004 E46.24526 F1800.000
G1 X103.293 Y107.584 E46.35018
G1 X96.707 Y107.584 E46.69422
G1 X95.287 Y109.004 E46.79914
G1 X91.113 Y109.004 E47.01725
G1 X90.996 Y108.887 E47.02585
G1 X90.996 Y104.713 E47.24397
G1 X92.416 Y103.293 E47.34888
G1 X92.416 Y96.707 E47.69293
G1 X90.996 Y95.287 E47.79784
G1 X90.996 Y91.113 E48.01596
G1 X91.112 Y90.997 E48.02453
G1 X95.292 Y91.001 E48.24292
G1 X96.707 Y92.416 E48.34747
G1 X103.293 Y92.416 E48.69152
G1 X104.713 Y90.996 E48.79644
G1 X108.887 Y90.996 E49.01455
G1 X109.004 Y91.113 E49.02315
G1 X109.004 Y95.287 E49.24126
G1 X107.584 Y96.707 E49.34618
G1 X107.584 Y103.293 E49.69023
G1 X109.004 Y104.713 E49.79514
G1 X109.004 Y108.887 E50.01325
G1 X108.930 Y108.961 E50.01873
G1 X108.887 Y109.423 F1800.000
G1 X104.539 Y109.423 E50.24590 F1800.000
G1 X103.119 Y108.003 E50.35082
G1 X96.881 Y108.003 E50.67673
G1 X95.461 Y109.423 E50.78165
G1 X90.939 Y109.423 E51.01789
G1 X90.577 Y109.061 E51.04463
G1 X90.577 Y104.539 E51.28087
G1 X91.997 Y103.119 E51.38579
G1 X91.997 Y96.881 E51.71170
G1 X90.577 Y95.461 E51.81662
G1 X90.577 Y90.939 E52.05286
G1 X90.939 Y90.578 E52.07958
G1 X95.466 Y90.582 E52.31609
G1 X96.881 Y91.997 E52.42064
G1 X103.119 Y91.997 E52.74655
G1 X104.539 Y90.577 E52.85147
G1 X109.061 Y90.577 E53.08771
G1 X109.423 Y90.939 E53.11445
G1 X109.423 Y95.461 E53.35069 F1800.000
G1 X108.003 Y96.881 E53.45560
G1 X108.003 Y103.119 E53.78152
G1 X109.423 Y104.539 E53.88644
G1 X109.423 Y109.061 E54.12268
G1 X109.061 Y109.423 E54.14941
G1 X108.947 Y109.423 E54.15534
G1 X108.887 Y109.800 F1800.000
G1 X104.383 Y109.800 E54.34390 F1350.000
G1 X102.963 Y108.380 E54.42797
G1 X97.037 Y108.380 E54.67602
G1 X95.617 Y109.800 E54.76008
G1 X90.783 Y109.800 E54.96245
G1 X90.200 Y109.217 E54.99695
G1 X90.200 Y104.383 E55.19932
G1 X91.620 Y102.963 E55.28338
G1 X91.620 Y97.037 E55.53143
G1 X90.200 Y95.617 E55.61549
G1 X90.200 Y90.783 E55.81786
G1 X90.783 Y90.200 E55.85236
G1 X95.622 Y90.205 E56.05495
G1 X97.037 Y91.620 E56.13870
G1 X102.963 Y91.620 E56.38675
G1 X104.383 Y90.200 E56.47082
G1 X109.217 Y90.200 E56.67318
G1 X109.800 Y90.783 E56.70769
G1 X109.800 Y95.617 E56.91005 F1350.000
G1 X108.380 Y97.037 E56.99411
G1 X108.380 Y102.963 E57.24217
G1 X109.800 Y104.383 E57.32623
G1 X109.800 Y109.217 E57.52859
G1 X109.217 Y109.800 E57.56310
G1 X108.947 Y109.800 E57.57439
G1 X108.687 Y109.454 F1800.000
G1 X108.757 Y108.117 F1800.000
G1 X91.884 Y91.245 E58.82101 F1800.000
G1 X91.243 Y94.553 E58.99706
G1 X105.447 Y108.757 E60.04652
G1 X100.078 Y107.337 F1800.000
G1 X92.663 Y99.922 E60.59435 F1800.000
G1 X92.399 Y103.607 F1800.000
G1 X96.393 Y107.601 E60.88943 F1800.000
G1 X93.599 Y108.757 E61.04737
G1 X91.243 Y106.401 E61.22146
G1 X107.337 Y102.748 F1800.000
G1 X97.252 Y92.663 E61.96655 F1800.000
G1 X101.201 Y92.663 E62.17288
G1 X107.337 Y98.799 E62.62619
G1 X108.241 Y95.753 F1800.000
G1 X104.247 Y91.759 E62.92127 F1800.000
G1 X107.680 Y91.243 E63.10264
G1 X108.757 Y92.320 E63.18220
M106 S232.05
G1 Z1.500 F1800.000
G1 E61.18220 F2400.00000
G92 E0
G1 X108.887 Y109.004 F1800.000
G1 E2.00000 F2400.00000
G1 X104.713 Y109.004 E2.21811 F1800.000
G1 X103.293 Y107.584 E2.32303
G1 X101.887 Y107.584 E2.39644
G1 X101.807 Y107.664 E2.40235
G1 X98.193 Y107.664 E2.59121
G1 X98.113 Y107.584 E2.59712
G1 X96.707 Y107.584 E2.67054
G1 X95.287 Y109.004 E2.77545
G1 X91.113 Y109.004 E2.99356
G1 X90.996 Y108.887 E3.00217
G1 X90.996 Y104.713 E3.22028
G1 X92.416 Y103.293 E3.32520
G1 X92.416 Y101.887 E3.39861
G1 X92.336 Y101.807 E3.40452
G1 X92.336 Y98.193 E3.59338
G1 X92.416 Y98.113 E3.59929
G1 X92.416 Y96.707 E3.67270
G1 X90.996 Y95.287 E3.77762
G1 X90.996 Y91.113 E3.99573
G1 X91.113 Y90.996 E4.00434
G1 X95.287 Y90.996 E4.22245
G1 X96.707 Y92.416 E4.32737
G1 X98.113 Y92.416 E4.40078
G1 X98.193 Y92.336 E4.40669
G1 X101.807 Y92.336 E4.59555
G1 X101.887 Y92.416 E4.60146
G1 X103.293 Y92.416 E4.67487
G1 X104.713 Y90.996 E4.77979
G1 X108.887 Y90.996 E4.99790
G1 X109.004 Y91.113 E5.00651
G1 X109.004 Y95.287 E5.22462
G1 X107.584 Y96.707 E5.32954
G1 X107.584 Y98.113 E5.40295
G1 X107.664 Y98.193 E5.40886
G1 X107.664 Y101.807 E5.59772
G1 X107.584 Y101.887 E5.60363
